src/assets/shopping-cart.svg

<svg xmlns="http://www.w3.org/2000/svg" width="16" height="16" fill="none"><path fill="#2A254B" d="M5 15c.55228 0 1-.4477 1-1s-.44772-1-1-1-1 .4477-1 1 .44772 1 1 1ZM12 15c.5523 0 1-.4477 1-1s-.4477-1-1-1-1 .4477-1 1 .4477 1 1 1ZM14 3.50001H2.91l-.41-2.1a.50003.50003 0 0 0-.5-.4H0v1h1.59L3.5 11.6a.49978.49978 0 0 0 .17757.2905A.49974.49974 0 0 0 4 12h9v-1H4.41L4 9.00001h9a.49971.49971 0 0 0 .3197-.1056.49987.49987 0 0 0 .1803-.2844l1-4.5a.49943.49943 0 0 0-.0011-.22523A.5001.5001 0 0 0 14 3.50001Zm-1.4 4.5H3.81l-.7-3.5h10.265l-.775 3.5Z"/></svg>

<svg width="16" height="16" viewBox="0 0 16 16" fill="none" xmlns="http://www.w3.org/2000/svg">
<path d="M5 15C5.55228 15 6 14.5523 6 14C6 13.4477 5.55228 13 5 13C4.44772 13 4 13.4477 4 14C4 14.5523 4.44772 15 5 15Z" fill="#2A254B"/>
<path d="M12 15C12.5523 15 13 14.5523 13 14C13 13.4477 12.5523 13 12 13C11.4477 13 11 13.4477 11 14C11 14.5523 11.4477 15 12 15Z" fill="#2A254B"/>
<path d="M14 3.50001H2.91L2.5 1.40001C2.47662 1.28537 2.41379 1.18256 2.32243 1.10947C2.23107 1.03639 2.11697 0.997651 2 1.00001H0V2.00001H1.59L3.5 11.6C3.52338 11.7146 3.58621 11.8175 3.67757 11.8905C3.76893 11.9636 3.88303 12.0024 4 12H13V11H4.41L4 9.00001H13C13.1156 9.00284 13.2286 8.96552 13.3197 8.89441C13.4109 8.8233 13.4746 8.7228 13.5 8.61001L14.5 4.11001C14.5168 4.03582 14.5164 3.95879 14.4989 3.88478C14.4814 3.81076 14.4472 3.74172 14.399 3.6829C14.3508 3.62407 14.2898 3.57703 14.2206 3.54534C14.1515 3.51364 14.076 3.49814 14 3.50001ZM12.6 8.00001H3.81L3.11 4.50001H13.375L12.6 8.00001Z" fill="#2A254B"/>
</svg>
